src/images/icons/pencil.svg

<?xml version="1.0" encoding="UTF-8"?>
<svg width="19px" height="19px" viewBox="0 0 19 19" version="1.1" xmlns="http://www.w3.org/2000/svg" xmlns:xlink="http://www.w3.org/1999/xlink">
    <title>16DE98C8-C08F-443C-8635-ACBF613F9612</title>
    <defs>
        <path d="M14.4951143,0 C14.6686359,0 14.8221356,0.0600651423 14.9556137,0.180195427 L18.8198046,4.04438625 C18.9399349,4.17786445 19,4.33136405 19,4.50488567 C19,4.6784073 18.9399349,4.8252331 18.8198046,4.94536338 L6.24616811,17.5189998 C6.16608126,17.5990867 6.06597269,17.6591518 5.9458424,17.6991953 L0.800261875,18.980585 C0.560001305,19.0339763 0.35644711,18.9772479 0.189599594,18.8104004 C0.0227520786,18.6435529 -0.0339763151,18.4399987 0.0194150244,18.1997381 L1.30080473,13.0541576 C1.34084816,12.9340273 1.4009133,12.8339187 1.48100015,12.7538319 L14.0546366,0.180195427 C14.1747669,0.0600651423 14.3215927,0 14.4951143,0 Z M14.5051252,1.53166113 L2.49591529,13.540871 L1.51836026,17.4816397 L5.45912898,16.5040847 L17.4683389,4.49487482 L14.5051252,1.53166113 Z" id="path-1"></path>
    </defs>
    <g id="Page-5" stroke="none" stroke-width="1" fill="none" fill-rule="evenodd">
        <g id="Course-Settings---select-segment" transform="translate(-398.000000, -89.000000)">
            <g id="Headline" transform="translate(109.000000, 0.000000)">
                <g id="Icon/Edit" transform="translate(289.000000, 89.000000)">
                    <mask id="mask-2" fill="white">
                        <use xlink:href="#path-1"></use>
                    </mask>
                    <use id="Combined-Shape" fill="#0A2333" xlink:href="#path-1"></use>
                </g>
            </g>
        </g>
    </g>
</svg>

<svg xmlns="http://www.w3.org/2000/svg" viewBox="0 0 19 19" width="19" height="19">
    <path fill="currentColor" fill-rule="evenodd" d="M14.495 0c.174 0 .327.06.46.18l3.865 3.864c.12.134.18.287.18.46a.6.6 0 01-.18.441L6.246 17.52c-.08.08-.18.14-.3.18L.8 18.981a.621.621 0 01-.61-.17.621.621 0 01-.17-.611l1.28-5.146c.04-.12.1-.22.181-.3L14.055.18a.6.6 0 01.44-.18zm.01 1.532L2.495 13.54l-.977 3.94 3.941-.977 12.01-12.01-2.964-2.962z"/>
</svg>
